Origami/24x24/apps/selene.svg

<svg width="24" height="24" version="1" xmlns="http://www.w3.org/2000/svg">
 <g transform="scale(.5)">
  <rect transform="matrix(0,-1,-1,0,0,0)" x="-44" y="-44" width="40" height="40" rx="2" ry="2" style="fill:#f1d27a"/>
  <path d="m14 22.999533c0-9 6-8 20-8" style="fill:none;opacity:.2;stroke-linecap:round;stroke-linejoin:round;stroke-width:8;stroke:#000000"/>
  <path d="m4 7v-1c0-1.108 0.892-2 2-2h36c1.108 0 2 0.892 2 2v1c0-1.108-0.892-2-2-2h-36c-1.108 0-2 0.892-2 2z" style="fill:#ffffff;opacity:.2"/>
  <path d="m4 42v1c0 1.108 0.892 2 2 2h36c1.108 0 2-0.892 2-2v-1c0 1.108-0.892 2-2 2h-36c-1.108 0-2-0.892-2-2z" style="opacity:.2"/>
  <path d="m14 22c0-9 6-8 20-8" style="fill:none;stroke-linecap:round;stroke-linejoin:round;stroke-width:8;stroke:#454545"/>
  <path d="m34.05657 26.999533c0 9-6 8-20 8" style="fill:none;opacity:.2;stroke-linecap:round;stroke-linejoin:round;stroke-width:8;stroke:#000000"/>
  <path d="m34.05657 26c0 9-6 8-20 8" style="fill:none;stroke-linecap:round;stroke-linejoin:round;stroke-width:8;stroke:#454545"/>
 </g>
</svg>

<svg xmlns="http://www.w3.org/2000/svg" width="24" height="24" version="1">
 <g transform="scale(0.5)">
  <rect style="fill:#f1d27a" width="40" height="40" x="-44" y="-44" rx="2" ry="2" transform="matrix(0,-1,-1,0,0,0)"/>
  <path style="opacity:0.2;fill:none;stroke:#000000;stroke-width:8;stroke-linecap:round;stroke-linejoin:round" d="m 14,22.999533 c 0,-9 6,-8 20,-8"/>
  <path style="opacity:0.2;fill:#ffffff" d="M 4,7 V 6 C 4,4.892 4.892,4 6,4 h 36 c 1.108,0 2,0.892 2,2 V 7 C 44,5.892 43.108,5 42,5 H 6 C 4.892,5 4,5.892 4,7 Z"/>
  <path style="opacity:0.2" d="m 4,42 v 1 c 0,1.108 0.892,2 2,2 h 36 c 1.108,0 2,-0.892 2,-2 v -1 c 0,1.108 -0.892,2 -2,2 H 6 C 4.892,44 4,43.108 4,42 Z"/>
  <path style="fill:none;stroke:#454545;stroke-width:8;stroke-linecap:round;stroke-linejoin:round" d="m 14,22 c 0,-9 6,-8 20,-8"/>
  <path style="opacity:0.2;fill:none;stroke:#000000;stroke-width:8;stroke-linecap:round;stroke-linejoin:round" d="m 34.05657,26.999533 c 0,9 -6,8 -20,8"/>
  <path style="fill:none;stroke:#454545;stroke-width:8;stroke-linecap:round;stroke-linejoin:round" d="m 34.05657,26 c 0,9 -6,8 -20,8"/>
 </g>
</svg>
